X:1
T: Miss Hannah's Jig
C:William Marshall
R:Jig
Q:180
K:G
M:6/8
L:1/16
D2|G4G2 B2cdB2|G4G2 B2cdB2|A4a2 a2b2g2|f6d4f2|g4g2 b2a2g2|f2gaf2 a2g2f2|e2a2g2 f2e2f2|g6G4D2|
G4G2 B2cdB2|G4G2 B2cdB2|A4a2 a2b2g2|f6d4f2|g4g2 b2a2g2|f2gaf2 a2g2f2|e2a2g2 f2e2f2|g6G4g2|
b2a2g2 a2g2f2|g2f2e2 d2e2f2|g4g2 e2f2g2|a6d4g2|b2a2g2 a2g2f2|g2f2e2 d2e2f2|g2f2e2 d2e2f2|g6G4g2|
b2a2g2 a2g2f2|g2f2e2 d2e2f2|g4g2 e2f2g2|a6A4g2|g2abg2 b2a2g2|f2gaf2 a2g2f2|e2a2g2 f2e2f2|g6G4||
